X:100
T:Fred Finn's
R:reel
Z:transcribed by Dave Marshall
M:C|
K:D
|:~A3B ABde | fdec d2cd | B~E3 G3B | A~F3 dFBF |
~A3B ABde | fdec d2cd | BAGB ABdf | afeg fdd2 :|
|: fdad bdad| faaf gfed | fbba b2ba | fbba fede |
fdad bdad | faaf gfed | BAGB ABdf | afeg fdd2 :|
